!!!!SEGMENT: pl-sa--564-a-ix-44--003_anonim--polonez-c.krn
!!!cenid: 18xx:590
!!!COM: Anonim
!!!COM-rismID:
!!!CDT:
!!!CNT:
!!!OTL: Polonez C
!!!PDT:
!!!AGN: Secular; Polonaise
!!!SMS-siglum: PL-SA
!!!SMS-shelfmark: 564/A IX 44
!!!SMS-shelfwork: 003 W
!!!SMS-variant:
!!!SMS-altvar:
!!!NIFC-rismSourceID: 1001065438
!!!NIFC-islandoraID:
!!!URL-pdf-islandora:
!!!URL-scan: https://bc.bdsandomierz.pl/dlibra/publication/1320/edition/1288/content @EN{Scan on Cyfrowa Biblioteka Diecezjalna w Sandomierzu} @PL{Skany w portalu Cyfrowa Biblioteka Diecezjalna w Sandomierzu}
!!!ONB-nifc: Str. 3
!!!AIN: 2 empty
!!!key:
**kern	**kern
*part2	*part1
*staff2	*staff1
*Iempty	*Iempty
*I"	*I"
*>[A,B,B]	*>[A,B,B]
*clefF4	*clefG2
*k[]	*k[]
*C:	*C:
*M3/4	*M3/4
=1	=1
*>A	*>A
*clefG2	*
*tremolo	*
!	!LO:TX:a:t=No 4t
!	!LO:TX:a:t=Polon
8e/L 8c/	(4.gg\ 4.ee\ 4.cc\
8g/	.
8e/ 8c/	.
!	!LO:TX:a:t=P:problem=nad 16ee\LL 16cc\ oznaczenie przypominające daszek, tak jak pod klamrą łukową w trioli
8g/	16ee\LL 16cc\
.	16ff\JJ 16dd\)
*	*Xtuplet
!	!LO:TUP:a:problem=klamra łukowa, pod klamrą oznaczenie przypominające daszek
8e/ 8c/	12gg\L 12ee\
.	12aa\ 12ff\
8g/J	.
.	12bb\J 12gg\
=2	=2
8f/L 8c/	8ccc\L
8a/	16bb\L
.	16ccc\JJ
8f/ 8c/	16ddd\LL
.	16ccc\
8a/	16bb\
.	16ccc\JJ
8f/ 8c/	4aa\ 4ff\
8a/J	.
*Xtremolo	*
=3	=3
*clefF4	*
8r	16aa\LL 16ff\
.	16gg\JJ 16ee\
8C/L	4gg\ 4ee\
8E/	.
8C/J	8gg\L 8ee\
4F\	8aa\ 8ff\
.	8ff\J 8dd\
=4	=4
8r	16gg\LL 16ee\
.	16ff\ 16dd\
8GG/	16ee\ 16cc\
.	16ff\JJ 16dd\
4C/	16ee\LL 16cc\
.	16g\
.	16a\
.	16b\JJ
4r	16cc\LL
.	16dd\
.	16ee\
.	16ff\JJ
=5	=5
16C\LL	8gg\ 8ee\
16G\	.
16E\	4gg\ 4ee\
16G\JJ	.
*rep	*
16C\LL	.
16G\	.
16E\	16ee\LL
16G\JJ	16ff\JJ
*Xrep	*
*rep	*
16C\LL	16gg\LL
16G\	16gg\
16E\	16aa\
16G\JJ	16bb\JJ
*Xrep	*
=6	=6
16F\LL	8ccc\L
16c\	.
16A\	16bb\L
16c\JJ	16ccc\JJ
!!LO:LB:g=original
16F\LL	16ddd\LL
16c\	16ccc\
16A\	16bb\
16c\JJ	16ccc\JJ
*rep	*
16F\LL	4aa\ 4ff\
16c\	.
16A\	.
16c\JJ	.
*Xrep	*
=7	=7
8r	16aa\LL 16ff\
.	16gg\JJ 16ee\
8C/L	4gg\ 4ee\
8E/	.
8C/J	16aa\LL
.	16gg\JJ
4F\	16bb-X\LL
.	16aa\
.	16gg\
.	16ff\JJ
=8	=8
4G\	16ee\LL
.	16gg\
.	16ff\
.	16dd\JJ
8r	4dd\
8GG/	.
4C/	8cc\
.	8r
=9||;	=9||;
*tremolo	*
!LO:TX:a:t=P:problem=mixed beam	!
!LO:TX:a:t=P:2.\right:problem	!
8GG/L	8g/
8G\	4dd\
8GG/	.
8G\	16ee\LL
.	16ff\JJ
8GG/	16gg\LL
.	16ff\
8G\J	16ee\
.	16dd\JJ
*Xtremolo	*
=10	=10
8r	16ff\LL 16dd\
.	16ee\ 16cc\
8C\L	16aa\ 16ff\
.	16gg\JJ 16ee\
8E\	4.gg\ 4.ee\
8G\J	.
8E\L	.
8C\J	16ff\LL 16dd\
.	16ee\JJ 16cc\
=11	=11
!	!LO:TX:a:t=P:problem=mixed beam
8r	8g/L
.	8qqee/
8G\	8ff\
.	8qqee/
*tremolo	*
!LO:TX:a:t=P:problem=mixed beam	!
!LO:TX:a:t=P:2\right:problem	!
8GG/L	8ff\
.	8qqee/
8G\	8ff\J
8GG/	16gg\LL
.	16ff\
8G\J	16ee\
*Xtremolo	*
.	16dd\JJ
=12	=12
8r	16ff\LL 16dd\
.	16ee\ 16cc\
8C\L	16aa\ 16ff\
.	16gg\JJ 16ee\
8E\	4.gg\ 4.ee\
8G\J	.
4c\	.
.	(32cc\LLL
.	32dd\
.	32ee\)
.	32ff\JJJ
!!LO:LB:g=original
=13	=13
16C\LL	8gg\ 8ee\
16G\	.
16E\	4gg\ 4ee\
16G\JJ	.
*rep	*
16C\LL	.
16G\	.
16E\	16ee\LL
16G\JJ	16ff\JJ
*Xrep	*
*rep	*
16C\LL	16gg\LL
16G\	16gg\
16E\	16aa\
16G\JJ	16bb\JJ
*Xrep	*
=14	=14
16C\LL	8ccc\L
16G\	.
16E\	16bb\L
16G\JJ	16ccc\JJ
*rep	*
16C\LL	16bb\LL
16G\	16ccc\
16E\	16eee\
16G\JJ	16ccc\JJ
*Xrep	*
*rep	*
16C\LL	4gg\ 4ee\
16G\	.
16E\	.
16G\JJ	.
*Xrep	*
=15	=15
8r	(4.ccc\ 4.aa\
8F\	.
*tremolo	*
!LO:TX:a:t=P:problem=mixed beam	!
!LO:TX:a:t=P:2\right:problem	!
8FF/L	.
8F\	8ccc\ 8aa\
8FF/	8aa\L 8ff\)
8F\J	16r
.	16ff\Jk
*Xtremolo	*
=16	=16
4G\	16ee\LL
.	16gg\
.	16ff\
.	16dd\JJ
8r	4dd\
8GG/	.
4C/	8cc\
.	8r
!!LO:LB:g=original
=17||;	=17||;
*>B	*>B
*M3/4	*M3/4
!	!LO:TX:a:t=Trio
4AA/	(8.cc\L 8.a\
.	16dd\Jk 16b\)
4A\	8ee'\L 8cc'\
.	8ee'\J 8cc'\
*	*tuplet
!	!LO:TUP:a:problem=klamra łukowa, numer
4AA/	24ee\LL
.	24aa\
.	24bb\
.	24ccc\
.	24bb\
.	24aa\JJ
=18	=18
8r	8.aa\L 8.cc\
8E\L	.
.	16gg#X\Jk 16b\
8G#X\	4.gg#\ 4.b\
8B\J	.
4e\	.
.	8aa\ 8cc\
=19	=19
4E\	8bb\ 8dd\
.	4dd\ 4b\
4G#X\	.
.	16ee\LL 16cc\
.	16ff\JJ 16dd\
4E\	8ee\L 8cc\
.	8dd\J 8b\
=20	=20
4AA/	16dd\LL 16b\
.	16cc\ 16a\
.	16ff\ 16dd\
.	16ee\JJ 16cc\
8r	4ee\ 4cc\
!LO:TX:a:t=P:problem=mixed beam	!
8A\L	.
!	!LO:TUP:a:problem=klamra łukowa, numer
8AA/	24r
.	24aa\LL
.	24bb\
8A\J	24ccc\
.	24bb\
.	24aa\JJ
=21	=21
4E\	16aa\LL
.	16gg#X\JJ
.	4bb\ 4dd\
4G#X\	.
*	*Xtuplet
!	!LO:TUP:a:problem=klamra łukowa, pod klamrą oznaczenie przypominające daszek
.	24dd\LL
.	24ee\
.	24ff\JJ
4E\	8ee\L 8cc\
.	8dd\J 8b\
!!LO:LB:g=original
=22	=22
4A\	8cc/L
.	16cc/L
.	16a/JJ
!	!LO:TX:a:t=P:problem=mixed beam
8r	8ee\L
8E\	8g#X/J
4AA/	4a/
=23||;	=23||;
*tremolo	*
!LO:TX:a:t=P:problem=mixed beam	!
!LO:TX:a:t=P:2.\right:problem	!
8EE/L	4.b/ 4.g#X/
8E\	.
8EE/	.
8E\	16cc/LL 16a/
.	16b/JJ 16g#/
8EE/	8b/L 8g#/
8E\J	16cc/L 16a/
.	16b/JJ 16g#/
*Xtremolo	*
=24	=24
4AA/	8cc\L 8a\
.	16cc\L 16a\
.	16dd\JJ 16b\
8r	4.ee\ 4.cc\
!LO:TX:a:t=P:problem=mixed beam	!
8A\L	.
8AA/	.
8A\J	16dd\LL 16b\
.	16cc\JJ 16a\
=25	=25
8r	4.aa\ 4.cc\
8A\	.
4AA/	.
.	24ee\LL 24cc\
.	24ff\ 24dd\
.	24ee\JJ 24cc\
4r	8ee\L 8cc\
.	8dd\J 8b\
=26	=26
8r	16cc/LL
.	16b/
8AA/	16cc/
.	16a/JJ
8C/L	8.ee\L 8.cc\
8AA/J	.
.	16cc\Jk 16a\
!LO:TX:a:t=P:problem=mixed beam	!
8E\L	8cc\L 8a\
!LO:TX:a:t=Trio Da Capo	!
8EE/J	8b\J 8g#X\
==	==
*-	*-
!!!system-decoration: [(s1,s2)]
!!!ENC: Zofia Niedbalska
!!!END: 2020-06-07
!!!ENC: Andrzej Borzym
!!!END: 2020-06-19
